scalable/apps/page.kramo.Sly.svg

<?xml version="1.0" encoding="UTF-8" standalone="no"?>
<!-- Created with Inkscape (http://www.inkscape.org/) -->

<svg
   width="128"
   height="128"
   viewBox="0 0 128 128"
   version="1.1"
   id="svg5"
   inkscape:version="1.4 (e7c3feb100, 2024-10-09)"
   sodipodi:docname="page.kramo.Sly.svg"
   xml:space="preserve"
   xmlns:inkscape="http://www.inkscape.org/namespaces/inkscape"
   xmlns:sodipodi="http://sodipodi.sourceforge.net/DTD/sodipodi-0.dtd"
   xmlns:xlink="http://www.w3.org/1999/xlink"
   xmlns="http://www.w3.org/2000/svg"
   xmlns:svg="http://www.w3.org/2000/svg"><sodipodi:namedview
     id="namedview7"
     pagecolor="#ffffff"
     bordercolor="#666666"
     borderopacity="1"
     inkscape:pageshadow="2"
     inkscape:pageopacity="0.0"
     inkscape:pagecheckerboard="true"
     inkscape:document-units="px"
     showgrid="false"
     inkscape:showpageshadow="false"
     showborder="true"
     inkscape:snap-page="true"
     inkscape:zoom="3.2627628"
     inkscape:cx="28.80994"
     inkscape:cy="73.404049"
     inkscape:window-width="1920"
     inkscape:window-height="1043"
     inkscape:window-x="0"
     inkscape:window-y="0"
     inkscape:window-maximized="1"
     inkscape:current-layer="layer2"
     inkscape:deskcolor="#d1d1d1" /><defs
     id="defs2"><linearGradient
       id="linearGradient11"
       inkscape:collect="always"><stop
         style="stop-color:#ff5234;stop-opacity:1;"
         offset="0"
         id="stop11" /><stop
         style="stop-color:#ff3434;stop-opacity:1;"
         offset="1"
         id="stop12" /></linearGradient><linearGradient
       id="linearGradient9"
       inkscape:collect="always"><stop
         style="stop-color:#f9f9f9;stop-opacity:1;"
         offset="0"
         id="stop9" /><stop
         style="stop-color:#f9f9f9;stop-opacity:0.30024311;"
         offset="1"
         id="stop10" /></linearGradient><linearGradient
       id="linearGradient7"
       inkscape:collect="always"><stop
         style="stop-color:#f9f9f9;stop-opacity:1;"
         offset="0"
         id="stop7" /><stop
         style="stop-color:#f9f9f9;stop-opacity:0.29975134;"
         offset="1"
         id="stop8" /></linearGradient><inkscape:path-effect
       effect="fillet_chamfer"
       id="path-effect7"
       is_visible="true"
       lpeversion="1"
       nodesatellites_param="F,0,1,1,0,8.6356033,0,1 @ F,0,0,1,0,0,0,1 @ F,0,1,1,0,8.6356033,0,1 @ F,0,0,1,0,0,0,1 @ F,0,0,1,0,8.6356033,0,1 @ F,0,0,1,0,0,0,1"
       radius="0"
       unit="px"
       method="auto"
       mode="F"
       chamfer_steps="1"
       flexible="false"
       use_knot_distance="true"
       apply_no_radius="true"
       apply_with_radius="true"
       only_selected="false"
       hide_knots="false" /><inkscape:path-effect
       effect="fillet_chamfer"
       id="path-effect5"
       is_visible="true"
       lpeversion="1"
       nodesatellites_param="F,0,1,1,0,8.6356033,0,1 @ F,0,0,1,0,0,0,1 @ F,0,1,1,0,8.6356033,0,1 @ F,0,0,1,0,0,0,1 @ F,0,0,1,0,8.6356033,0,1 @ F,0,0,1,0,0,0,1"
       radius="0"
       unit="px"
       method="auto"
       mode="F"
       chamfer_steps="1"
       flexible="false"
       use_knot_distance="true"
       apply_no_radius="true"
       apply_with_radius="true"
       only_selected="false"
       hide_knots="false" /><inkscape:path-effect
       effect="fillet_chamfer"
       id="path-effect4"
       is_visible="true"
       lpeversion="1"
       nodesatellites_param="F,0,0,1,0,0,0,1 @ F,0,0,1,0,0,0,1 @ F,0,0,1,0,0,0,1 @ F,0,0,1,0,0,0,1 @ F,0,0,1,0,0,0,1 @ F,0,0,1,0,0,0,1"
       radius="0"
       unit="px"
       method="auto"
       mode="F"
       chamfer_steps="1"
       flexible="false"
       use_knot_distance="true"
       apply_no_radius="true"
       apply_with_radius="true"
       only_selected="false"
       hide_knots="false" /><linearGradient
       inkscape:collect="always"
       id="linearGradient404"><stop
         style="stop-color:#ff7158;stop-opacity:1;"
         offset="0"
         id="stop400" /><stop
         style="stop-color:#ffbfbf;stop-opacity:1;"
         offset="1"
         id="stop402" /></linearGradient><linearGradient
       y2="236"
       x2="96"
       y1="236"
       x1="32"
       gradientTransform="translate(604.81684,170.58641)"
       gradientUnits="userSpaceOnUse"
       id="linearGradient1099"
       xlink:href="#linearGradient1036" /><linearGradient
       id="linearGradient1036"><stop
         id="stop1032"
         offset="0"
         style="stop-color:#d5d3cf;stop-opacity:1;" /><stop
         id="stop1034"
         offset="1"
         style="stop-color:#f6f5f4;stop-opacity:1" /></linearGradient><radialGradient
       r="32"
       fy="-76"
       fx="-244"
       cy="-76"
       cx="-244"
       gradientTransform="matrix(0.88333331,0,0,0.88333331,-460.35018,463.11973)"
       gradientUnits="userSpaceOnUse"
       id="radialGradient1103"
       xlink:href="#linearGradient1069" /><linearGradient
       id="linearGradient1069"><stop
         id="stop1065"
         offset="0"
         style="stop-color:#d5d3cf;stop-opacity:1" /><stop
         id="stop1067-1"
         offset="1"
         style="stop-color:#949390;stop-opacity:1" /></linearGradient><linearGradient
       gradientUnits="userSpaceOnUse"
       y2="232"
       x2="64"
       y1="262.5"
       x1="64"
       id="linearGradient1027"
       xlink:href="#linearGradient1025"
       gradientTransform="translate(-470.5864,432.81685)" /><linearGradient
       id="linearGradient1025"><stop
         id="stop1021"
         offset="0"
         style="stop-color:#9a9996;stop-opacity:1" /><stop
         id="stop1023"
         offset="1"
         style="stop-color:#77767b;stop-opacity:1" /></linearGradient><inkscape:path-effect
       effect="spiro"
       id="path-effect35304-9"
       is_visible="true" /><clipPath
       clipPathUnits="userSpaceOnUse"
       id="clipPath1609-7"><path
         sodipodi:nodetypes="cccccc"
         inkscape:connector-curvature="0"
         id="path1611-5"
         d="m 252,116 28,-28 v -8 h -36 v 36 z"
         style="fill:#e74747;stroke:none;stroke-width:0.25px;stroke-linecap:butt;stroke-linejoin:miter;stroke-opacity:1" /></clipPath><linearGradient
       inkscape:collect="always"
       id="linearGradient8241"><stop
         style="stop-color:#9a301e;stop-opacity:1"
         offset="0"
         id="stop8237" /><stop
         style="stop-color:#d74830;stop-opacity:1;"
         offset="0.05"
         id="stop9349" /><stop
         style="stop-color:#9a301e;stop-opacity:1"
         offset="0.1"
         id="stop21746" /><stop
         style="stop-color:#9b301e;stop-opacity:1"
         offset="0.89999998"
         id="stop21940" /><stop
         style="stop-color:#d74830;stop-opacity:1;"
         offset="0.94999999"
         id="stop9351" /><stop
         style="stop-color:#9b301e;stop-opacity:1"
         offset="1"
         id="stop8239" /></linearGradient><radialGradient
       r="32"
       fy="-76"
       fx="-244"
       cy="-76"
       cx="-244"
       gradientTransform="matrix(0.88333331,0,0,0.88333331,-460.35018,463.11973)"
       gradientUnits="userSpaceOnUse"
       id="radialGradient1103-5"
       xlink:href="#linearGradient1069" /><inkscape:path-effect
       effect="spiro"
       id="path-effect35304-9-2"
       is_visible="true" /><clipPath
       clipPathUnits="userSpaceOnUse"
       id="clipPath1609-7-7"><path
         sodipodi:nodetypes="cccccc"
         inkscape:connector-curvature="0"
         id="path1611-5-0"
         d="m 252,116 28,-28 v -8 h -36 v 36 z"
         style="fill:#e74747;stroke:none;stroke-width:0.25px;stroke-linecap:butt;stroke-linejoin:miter;stroke-opacity:1" /></clipPath><clipPath
       clipPathUnits="userSpaceOnUse"
       id="clipPath744"><rect
         style="fill:#1e88e5;fill-opacity:1;stroke-width:0.264583"
         id="rect746"
         width="541.86664"
         height="541.86664"
         x="0"
         y="1.5987212e-14"
         rx="79.375"
         ry="79.375" /></clipPath><clipPath
       clipPathUnits="userSpaceOnUse"
       id="clipPath62"><rect
         style="fill:#1e88e5;fill-opacity:1;stroke-width:0.264583"
         id="rect64"
         width="541.86664"
         height="541.86664"
         x="2.2507105e-05"
         y="-0.42205024"
         rx="79.375"
         ry="79.375" /></clipPath><linearGradient
       inkscape:collect="always"
       xlink:href="#linearGradient8241"
       id="linearGradient8243"
       x1="11.5"
       y1="120.5"
       x2="116.5"
       y2="120.5"
       gradientUnits="userSpaceOnUse" /><radialGradient
       r="32"
       fy="-76"
       fx="-244"
       cy="-76"
       cx="-244"
       gradientTransform="matrix(0.88333331,0,0,0.88333331,-460.35018,463.11973)"
       gradientUnits="userSpaceOnUse"
       id="radialGradient1103-6"
       xlink:href="#linearGradient1069" /><inkscape:path-effect
       effect="spiro"
       id="path-effect35304-9-20"
       is_visible="true" /><clipPath
       clipPathUnits="userSpaceOnUse"
       id="clipPath1609-7-2"><path
         sodipodi:nodetypes="cccccc"
         inkscape:connector-curvature="0"
         id="path1611-5-3"
         d="m 252,116 28,-28 v -8 h -36 v 36 z"
         style="fill:#e74747;stroke:none;stroke-width:0.25px;stroke-linecap:butt;stroke-linejoin:miter;stroke-opacity:1" /></clipPath><radialGradient
       r="32"
       fy="-76"
       fx="-244"
       cy="-76"
       cx="-244"
       gradientTransform="matrix(0.88333331,0,0,0.88333331,-460.35018,463.11973)"
       gradientUnits="userSpaceOnUse"
       id="radialGradient1103-56"
       xlink:href="#linearGradient1069" /><inkscape:path-effect
       effect="spiro"
       id="path-effect35304-9-7"
       is_visible="true" /><clipPath
       clipPathUnits="userSpaceOnUse"
       id="clipPath1609-7-0"><path
         sodipodi:nodetypes="cccccc"
         inkscape:connector-curvature="0"
         id="path1611-5-9"
         d="m 252,116 28,-28 v -8 h -36 v 36 z"
         style="fill:#e74747;stroke:none;stroke-width:0.25px;stroke-linecap:butt;stroke-linejoin:miter;stroke-opacity:1" /></clipPath><clipPath
       clipPathUnits="userSpaceOnUse"
       id="clipPath37"><rect
         style="fill:#1a1a1a;fill-opacity:1;stroke-width:0.264583"
         id="rect39"
         width="541.86664"
         height="541.86664"
         x="-2.6626146e-06"
         y="3.2408705"
         rx="79.375"
         ry="79.375" /></clipPath><clipPath
       clipPathUnits="userSpaceOnUse"
       id="clipPath22042"><rect
         style="fill:#333333;fill-opacity:1;stroke-width:0.0133797"
         id="rect22044"
         width="27.31955"
         height="27.483929"
         x="166.96844"
         y="105.40438"
         rx="4.0018873"
         ry="4.0259666" /></clipPath><clipPath
       clipPathUnits="userSpaceOnUse"
       id="clipPath1039"><rect
         style="fill:#b3b3b3;fill-opacity:1;stroke-width:0.264583"
         id="rect1041"
         width="541.8667"
         height="541.86682"
         x="2.5931527e-05"
         y="-0.00010962487"
         rx="79.375008"
         ry="79.375031" /></clipPath><clipPath
       clipPathUnits="userSpaceOnUse"
       id="clipPath154"><rect
         style="fill:#b3b3b3;fill-opacity:1;stroke-width:0.264583"
         id="rect156"
         width="541.8667"
         height="541.86682"
         x="-2.9218751e-05"
         y="-0.00016368683"
         rx="79.375008"
         ry="79.375031" /></clipPath><linearGradient
       inkscape:collect="always"
       xlink:href="#linearGradient404"
       id="linearGradient406"
       x1="64"
       y1="112.5"
       x2="64"
       y2="7.5"
       gradientUnits="userSpaceOnUse" /><linearGradient
       id="paint0_linear"
       x1="49.9392"
       y1="0.257812"
       x2="49.9392"
       y2="99.7423"
       gradientUnits="userSpaceOnUse"
       gradientTransform="matrix(0.76242929,0,0,0.76242929,26.69079,21.878509)"><stop
         stop-color="white"
         id="stop585" /><stop
         offset="1"
         stop-color="white"
         stop-opacity="0"
         id="stop587" /></linearGradient><linearGradient
       inkscape:collect="always"
       xlink:href="#linearGradient7"
       id="linearGradient8"
       x1="10.36523"
       y1="39.188888"
       x2="71.988468"
       y2="39.188888"
       gradientUnits="userSpaceOnUse" /><linearGradient
       inkscape:collect="always"
       xlink:href="#linearGradient9"
       id="linearGradient10"
       x1="10.36523"
       y1="39.188888"
       x2="71.988468"
       y2="39.188888"
       gradientUnits="userSpaceOnUse" /><linearGradient
       inkscape:collect="always"
       xlink:href="#linearGradient11"
       id="linearGradient12"
       x1="13.622333"
       y1="9.6223326"
       x2="109.04778"
       y2="85.569176"
       gradientUnits="userSpaceOnUse" /><filter
       style="color-interpolation-filters:sRGB"
       id="filter12"
       inkscape:label="filter1" /><filter
       style="color-interpolation-filters:sRGB;"
       inkscape:label="Drop Shadow"
       id="filter30"
       x="-0.039957567"
       y="-0.055971999"
       width="1.0799151"
       height="1.181909"><feFlood
         result="flood"
         in="SourceGraphic"
         flood-opacity="0.301961"
         flood-color="rgb(0,0,0)"
         id="feFlood29" /><feGaussianBlur
         result="blur"
         in="SourceGraphic"
         stdDeviation="1.500000"
         id="feGaussianBlur29" /><feOffset
         result="offset"
         in="blur"
         dx="0.000000"
         dy="4.500000"
         id="feOffset29" /><feComposite
         result="comp1"
         operator="in"
         in="flood"
         in2="offset"
         id="feComposite29" /><feComposite
         result="comp2"
         operator="over"
         in="SourceGraphic"
         in2="comp1"
         id="feComposite30" /></filter></defs><g
     inkscape:groupmode="layer"
     id="layer2"
     inkscape:label="Layer 1"><rect
       style="fill:url(#linearGradient8243);fill-opacity:1"
       id="rect440"
       width="105"
       height="105"
       x="11.5"
       y="15.5"
       rx="13"
       ry="13" /><rect
       style="fill:url(#linearGradient406);fill-opacity:1"
       id="rect358"
       width="105"
       height="105"
       x="11.5"
       y="7.5"
       rx="13"
       ry="13" /><rect
       style="fill:url(#linearGradient12);fill-opacity:1;stroke-width:0.959575"
       id="rect338"
       width="100.75533"
       height="100.75533"
       x="13.622333"
       y="9.6223326"
       rx="12"
       ry="12" /><path
       sodipodi:type="star"
       style="fill:#ff5234;fill-opacity:1;stroke-width:0.51"
       id="path1"
       inkscape:flatsided="false"
       sodipodi:sides="3"
       sodipodi:cx="43.994209"
       sodipodi:cy="60"
       sodipodi:r1="36.259388"
       sodipodi:r2="18.225109"
       sodipodi:arg1="0.52359878"
       sodipodi:arg2="1.5707963"
       inkscape:rounded="0"
       inkscape:randomized="0"
       d="M 75.39576,78.129694 43.99421,78.225109 12.592658,78.129694 28.210802,50.887446 43.994209,23.740612 59.777617,50.887445 Z"
       inkscape:transform-center-y="-9.1125548" /><g
       id="g10"
       style="filter:url(#filter30)"><path
         id="path3"
         style="fill:url(#linearGradient10);stroke-width:0.51"
         inkscape:transform-center-y="-9.1519092"
         transform="matrix(1.0628085,0,0,0.92535929,32.53783,26.705862)"
         d="M 66.982909,66.505976 41.17685,66.584389 15.37079,66.505976 A 5.0208157,5.0208157 60 0 1 11.030284,58.987999 L 23.865406,36.60009 36.836344,14.290594 a 5.0208156,5.0208156 1.4381464e-6 0 1 8.681012,0 L 58.488292,36.60009 71.323414,58.987999 a 5.0208156,5.0208156 120 0 1 -4.340505,7.517977 z"
         sodipodi:nodetypes="ccccccc"
         inkscape:original-d="M 75.618472,66.479736 41.17685,66.584389 6.7352267,66.479736 23.865406,36.60009 41.17685,6.8250961 58.488292,36.60009 Z"
         inkscape:path-effect="#path-effect5"
         inkscape:transform-center-x="2.267531e-06" /><path
         id="path5"
         style="fill:url(#linearGradient8);stroke-width:0.51"
         inkscape:transform-center-y="-9.1519088"
         transform="matrix(1.0628085,0,0,0.92535929,7.935955,13.089351)"
         d="M 66.982909,66.505976 41.17685,66.584389 15.37079,66.505976 A 5.0208157,5.0208157 60 0 1 11.030284,58.987999 L 23.865406,36.60009 36.836344,14.290594 a 5.0208156,5.0208156 1.4381464e-6 0 1 8.681012,0 L 58.488292,36.60009 71.323414,58.987999 a 5.0208156,5.0208156 120 0 1 -4.340505,7.517977 z"
         sodipodi:nodetypes="ccccccc"
         inkscape:original-d="M 75.618472,66.479736 41.17685,66.584389 6.7352267,66.479736 23.865406,36.60009 41.17685,6.8250961 58.488292,36.60009 Z"
         inkscape:path-effect="#path-effect7"
         inkscape:transform-center-x="1.8555128e-06" /></g></g></svg>

<svg xmlns="http://www.w3.org/2000/svg" xmlns:xlink="http://www.w3.org/1999/xlink" xml:space="preserve" width="128" height="128" viewBox="0 0 128 128">
    <defs>
        <linearGradient id="h">
            <stop offset="0" style="stop-color:#ff5234;stop-opacity:1"/>
            <stop offset="1" style="stop-color:#ff3434;stop-opacity:1"/>
        </linearGradient>
        <linearGradient id="g">
            <stop offset="0" style="stop-color:#f9f9f9;stop-opacity:1"/>
            <stop offset="1" style="stop-color:#f9f9f9;stop-opacity:.30024311"/>
        </linearGradient>
        <linearGradient id="c">
            <stop offset="0" style="stop-color:#f9f9f9;stop-opacity:1"/>
            <stop offset="1" style="stop-color:#f9f9f9;stop-opacity:.29975134"/>
        </linearGradient>
        <linearGradient id="b">
            <stop offset="0" style="stop-color:#ff7158;stop-opacity:1"/>
            <stop offset="1" style="stop-color:#ffbfbf;stop-opacity:1"/>
        </linearGradient>
        <linearGradient id="a">
            <stop offset="0" style="stop-color:#9a301e;stop-opacity:1"/>
            <stop offset=".05" style="stop-color:#d74830;stop-opacity:1"/>
            <stop offset=".1" style="stop-color:#9a301e;stop-opacity:1"/>
            <stop offset=".9" style="stop-color:#9b301e;stop-opacity:1"/>
            <stop offset=".95" style="stop-color:#d74830;stop-opacity:1"/>
            <stop offset="1" style="stop-color:#9b301e;stop-opacity:1"/>
        </linearGradient>
        <linearGradient xlink:href="#a" id="i" x1="11.5" x2="116.5" y1="120.5" y2="120.5" gradientUnits="userSpaceOnUse"/>
        <linearGradient xlink:href="#b" id="j" x1="64" x2="64" y1="112.5" y2="7.5" gradientUnits="userSpaceOnUse"/>
        <linearGradient xlink:href="#c" id="n" x1="10.365" x2="71.988" y1="39.189" y2="39.189" gradientUnits="userSpaceOnUse"/>
        <linearGradient xlink:href="#g" id="m" x1="10.365" x2="71.988" y1="39.189" y2="39.189" gradientUnits="userSpaceOnUse"/>
        <linearGradient xlink:href="#h" id="k" x1="13.622" x2="109.048" y1="9.622" y2="85.569" gradientUnits="userSpaceOnUse"/>
        <filter id="l" width="1.08" height="1.182" x="-.04" y="-.056" style="color-interpolation-filters:sRGB">
            <feFlood flood-color="#000" flood-opacity=".302" result="flood"/>
            <feGaussianBlur in="SourceGraphic" result="blur" stdDeviation="1.5"/>
            <feOffset dy="4.5" in="blur" result="offset"/>
            <feComposite in="flood" in2="offset" operator="in" result="comp1"/>
            <feComposite in="SourceGraphic" in2="comp1" result="comp2"/>
        </filter>
    </defs>
    <rect width="105" height="105" x="11.5" y="15.5" rx="13" ry="13" style="fill:url(#i);fill-opacity:1"/>
    <rect width="105" height="105" x="11.5" y="7.5" rx="13" ry="13" style="fill:url(#j);fill-opacity:1"/>
    <rect width="100.755" height="100.755" x="13.622" y="9.622" rx="12" ry="12" style="fill:url(#k);fill-opacity:1;stroke-width:.959575"/>
    <path d="m75.396 78.13-31.402.095-31.401-.095L28.21 50.887l15.783-27.146 15.784 27.146Z" style="fill:#ff5234;fill-opacity:1;stroke-width:.51"/>
    <g style="filter:url(#l)">
        <path d="m66.983 66.506-25.806.078-25.806-.078a5.02 5.02 60 0 1-4.34-7.518L23.864 36.6l12.971-22.31a5.02 5.02 0 0 1 8.681 0L58.488 36.6l12.835 22.388a5.02 5.02 120 0 1-4.34 7.518" style="fill:url(#m);stroke-width:.51" transform="matrix(1.0628 0 0 .92536 32.538 26.706)"/>
        <path d="m66.983 66.506-25.806.078-25.806-.078a5.02 5.02 60 0 1-4.34-7.518L23.864 36.6l12.971-22.31a5.02 5.02 0 0 1 8.681 0L58.488 36.6l12.835 22.388a5.02 5.02 120 0 1-4.34 7.518" style="fill:url(#n);stroke-width:.51" transform="matrix(1.0628 0 0 .92536 7.936 13.09)"/>
    </g>
</svg>
